X: 21272
Q: "Moderato"
M: C
L: 1/8
K: D
|: d>e |\
fedB ABdF | A2d2 d3F | G3A BAGF | E2e2 e2ag |\
fedf edce | dcB^A B=AGF | EFGE AGFE | D2d2 d2 :|


